X:4830
T:Polska fr Falu Spelmanslag record (1)
A:Dalarna
B:Ltar fr Dalarna, Paul Bckstrom 1974
C:e. Petters Erik Eriksson
D:Tune #3 from "i sttten", Falu Spelmanslag, Tongng AWCD-18
M:3/4
O:Sweden
Q:1/4=92
R:Polska
Z:Richard Robinson 
%%TUNEURL: http://www.leeds.ac.uk/music/Info/RRTuneBk/gettune/00000bce.html
%%ID:00000bce
K:G
D2 G2 A>B| c2 BG (E2| \
E2) cB A>G| F<G AF (D2| \
D2) G2 A>B| c2 BG(E2|
E2) cB A>G| FE/F/ G4::\
G>B dc B>A| G<c ed c>B|\
A>B c/d/c/A/ B>G| F<G AF (D2|
D2) dc B>A| G<c ed c>B|\
A>B c/d/c/A/ B>G| FE/F/ G2:|
